web/www/src/assets/img/reisoverzicht/Finish.svg

<svg width="313" height="420" viewBox="0 0 313 420" fill="none" xmlns="http://www.w3.org/2000/svg">
<path d="M19.536 26.184V18.888H11.184V12.744H20.736V5.4H2.976V39H11.184V26.184H19.536ZM32.9606 13.8H24.9446V39H32.9606V13.8ZM28.8806 12.264C31.4246 12.264 33.3926 10.44 33.3926 7.944C33.3926 5.4 31.4246 3.576 28.8806 3.576C26.3366 3.576 24.4166 5.4 24.4166 7.944C24.4166 10.44 26.3366 12.264 28.8806 12.264ZM52.338 39H60.354V25.032C60.354 19.896 59.586 13.176 51.714 13.176C48.546 13.176 46.338 14.904 45.378 16.392V13.8H37.554V39H45.57V23.976C45.57 21.96 46.818 20.376 49.026 20.376C50.946 20.376 52.338 21.624 52.338 23.976V39ZM72.8044 13.8H64.7884V39H72.8044V13.8ZM68.7244 12.264C71.2684 12.264 73.2364 10.44 73.2364 7.944C73.2364 5.4 71.2684 3.576 68.7244 3.576C66.1804 3.576 64.2604 5.4 64.2604 7.944C64.2604 10.44 66.1804 12.264 68.7244 12.264ZM85.4618 39.624C91.2218 39.624 95.7338 36.456 95.7338 31.32C95.7338 22.2 84.1178 24.024 84.1178 20.856C84.1178 20.088 84.7898 19.608 85.9418 19.608C87.9098 19.608 89.3498 20.808 90.1178 21.576L95.3018 17.496C93.8138 15.48 91.0778 13.176 86.2778 13.176C80.8058 13.176 76.5818 16.104 76.5818 20.952C76.5818 30.12 88.1018 28.872 88.1018 31.752C88.1018 32.664 87.3818 33.144 85.8458 33.144C83.3018 33.144 81.6218 32.136 80.2778 30.936L75.7658 35.304C77.2538 37.32 80.6618 39.624 85.4618 39.624ZM113.606 39H121.622V25.032C121.622 19.896 120.854 13.176 112.982 13.176C109.814 13.176 107.702 14.904 106.742 16.392V4.296H98.7259V39H106.742V23.976C106.742 21.96 108.086 20.376 110.294 20.376C112.214 20.376 113.606 21.624 113.606 23.976V39ZM131.142 39.624C133.782 39.624 135.942 37.464 135.942 34.872C135.942 32.232 133.782 30.072 131.142 30.072C128.502 30.072 126.39 32.232 126.39 34.872C126.39 37.464 128.502 39.624 131.142 39.624ZM135.414 5.4H126.918L127.542 28.872H134.79L135.414 5.4Z" fill="black"/>
<path d="M70 54V221" stroke="black"/>
<path d="M40 396V250.5L100.5 289.5V419.5" stroke="black"/>
<path d="M40 259L100.5 298" stroke="black"/>
<path d="M40 267L100.5 306" stroke="black"/>
<path d="M40 275L100.5 314" stroke="black"/>
<path d="M40 283L100.5 322" stroke="black"/>
<path d="M46 254.5V287" stroke="black"/>
<path d="M52 258V290.5" stroke="black"/>
<path d="M58 262V294.5" stroke="black"/>
<path d="M64 266V298.5" stroke="black"/>
<path d="M70 270V302.5" stroke="black"/>
<path d="M76 274V306.5" stroke="black"/>
<path d="M82 278V310" stroke="black"/>
<path d="M88 281.344V313.844" stroke="black"/>
<path d="M94 285V317.5" stroke="black"/>
<path d="M46 254.5L40 251V259L46 262.5V254.5Z" fill="black"/>
<path d="M58 262.5L52 258.5V267L58 270.5V262.5Z" fill="black"/>
<path d="M70 270L64 266V274.5L70 278V270Z" fill="black"/>
<path d="M82 278L76 274V282.5L82 286V278Z" fill="black"/>
<path d="M94 285.5L88 282V290.5L94 294V285.5Z" fill="black"/>
<path d="M100 297.5L94 294V302.5L100 306V297.5Z" fill="black"/>
<path d="M88 289.5L82 286V294.5L88 298V289.5Z" fill="black"/>
<path d="M76 281.5L70 278V286.5L76 290V281.5Z" fill="black"/>
<path d="M64 274.5L58 271V279.5L64 283V274.5Z" fill="black"/>
<path d="M52 266.5L46 263V271.5L52 275V266.5Z" fill="black"/>
<path d="M46 270.5L40 267V275.5L46 279V270.5Z" fill="black"/>
<path d="M58 278.5L52 275V283.5L58 287V278.5Z" fill="black"/>
<path d="M70 286.5L64 282.5V290.5L70 294V286.5Z" fill="black"/>
<path d="M82 294L76 290V298L82 301.5V294Z" fill="black"/>
<path d="M94 302L88 298V306L94 309.5V302Z" fill="black"/>
<path d="M100 314L94 310V318L100 321.5V314Z" fill="black"/>
<path d="M88 306L82 302V310L88 313.5V306Z" fill="black"/>
<path d="M76 298L70 294V302L76 306V298Z" fill="black"/>
<path d="M64 290.5L58 286.5V294.5L64 298.5V290.5Z" fill="black"/>
<path d="M52 283L46 279V287L52 291V283Z" fill="black"/>
<g filter="url(#filter0_d)">
<path d="M235.928 300.837L249.863 304.71L265.179 294L243.198 294.607C242.983 294.618 242.774 294.682 242.592 294.793L235.637 298.643C235.421 298.759 235.245 298.934 235.133 299.146C235.022 299.359 234.979 299.599 235.01 299.835C235.041 300.071 235.145 300.293 235.309 300.471C235.473 300.65 235.688 300.777 235.928 300.837V300.837Z" fill="black"/>
<path d="M301.034 287.374L285.766 284.201C284.482 283.932 283.153 283.933 281.869 284.203C280.585 284.473 279.377 285.005 278.326 285.764L232.207 318.034L221.132 317.567C220.498 317.547 219.873 317.718 219.345 318.058C218.818 318.398 218.414 318.889 218.192 319.461C217.97 320.033 217.94 320.659 218.106 321.248C218.273 321.838 218.628 322.362 219.121 322.747L229.905 330.984C230.083 331.122 230.294 331.214 230.519 331.25C230.744 331.287 230.975 331.268 231.19 331.194C234.267 330.051 245.73 324.194 259.277 317.031L261.992 343.887C262.015 344.12 262.103 344.342 262.248 344.53C262.392 344.718 262.587 344.864 262.812 344.953C263.036 345.041 263.282 345.07 263.521 345.034C263.761 344.998 263.987 344.9 264.173 344.751L270.231 339.897C270.563 339.63 270.786 339.258 270.862 338.847L276.605 307.837C286.299 302.657 295.557 297.641 302.076 294.094C302.752 293.74 303.299 293.194 303.643 292.53C303.986 291.866 304.109 291.117 303.995 290.383C303.882 289.65 303.537 288.968 303.007 288.43C302.477 287.891 301.788 287.523 301.034 287.374V287.374Z" fill="black"/>
</g>
<circle cx="281" cy="294" r="2" fill="#FFF6F0"/>
<circle cx="273" cy="299" r="2" fill="#FFF6F0"/>
<circle cx="265" cy="304" r="2" fill="#FFF6F0"/>
<circle cx="257" cy="309" r="2" fill="#FFF6F0"/>
<circle cx="249" cy="314" r="2" fill="#FFF6F0"/>
<circle cx="241" cy="319" r="2" fill="#FFF6F0"/>
<path d="M284 288L287 284.5L299.5 287L292.5 292L284 288Z" fill="#FFF6F0"/>
<defs>
<filter id="filter0_d" x="218" y="284" width="94.0366" height="69.0489" filterUnits="userSpaceOnUse" color-interpolation-filters="sRGB">
<feFlood flood-opacity="0" result="BackgroundImageFix"/>
<feColorMatrix in="SourceAlpha" type="matrix" values="0 0 0 0 0 0 0 0 0 0 0 0 0 0 0 0 0 0 127 0"/>
<feOffset dx="4" dy="4"/>
<feGaussianBlur stdDeviation="2"/>
<feColorMatrix type="matrix" values="0 0 0 0 0 0 0 0 0 0 0 0 0 0 0 0 0 0 0.1 0"/>
<feBlend mode="normal" in2="BackgroundImageFix" result="effect1_dropShadow"/>
<feBlend mode="normal" in="SourceGraphic" in2="effect1_dropShadow" result="shape"/>
</filter>
</defs>
</svg>

<svg fill="none" height="420" viewBox="0 0 313 420" width="313" xmlns="http://www.w3.org/2000/svg" xmlns:xlink="http://www.w3.org/1999/xlink"><filter id="a" color-interpolation-filters="sRGB" filterUnits="userSpaceOnUse" height="69.0489" width="94.0366" x="218" y="284"><feFlood flood-opacity="0" result="BackgroundImageFix"/><feColorMatrix in="SourceAlpha" type="matrix" values="0 0 0 0 0 0 0 0 0 0 0 0 0 0 0 0 0 0 127 0"/><feOffset dx="4" dy="4"/><feGaussianBlur stdDeviation="2"/><feColorMatrix type="matrix" values="0 0 0 0 0 0 0 0 0 0 0 0 0 0 0 0 0 0 0.1 0"/><feBlend in2="BackgroundImageFix" mode="normal" result="effect1_dropShadow"/><feBlend in="SourceGraphic" in2="effect1_dropShadow" mode="normal" result="shape"/></filter><path d="m19.536 26.184v-7.296h-8.352v-6.144h9.552v-7.344h-17.76v33.6h8.208v-12.816zm13.4246-12.384h-8.016v25.2h8.016zm-4.08-1.536c2.544 0 4.512-1.824 4.512-4.32 0-2.544-1.968-4.368-4.512-4.368s-4.464 1.824-4.464 4.368c0 2.496 1.92 4.32 4.464 4.32zm23.4574 26.736h8.016v-13.968c0-5.136-.768-11.856-8.64-11.856-3.168 0-5.376 1.728-6.336 3.216v-2.592h-7.824v25.2h8.016v-15.024c0-2.016 1.248-3.6 3.456-3.6 1.92 0 3.312 1.248 3.312 3.6zm20.4664-25.2h-8.016v25.2h8.016zm-4.08-1.536c2.544 0 4.512-1.824 4.512-4.32 0-2.544-1.968-4.368-4.512-4.368s-4.464 1.824-4.464 4.368c0 2.496 1.92 4.32 4.464 4.32zm16.7374 27.36c5.76 0 10.272-3.168 10.272-8.304 0-9.12-11.616-7.296-11.616-10.464 0-.768.672-1.248 1.824-1.248 1.968 0 3.408 1.2 4.176 1.968l5.184-4.08c-1.488-2.016-4.224-4.32-9.024-4.32-5.472 0-9.696 2.928-9.696 7.776 0 9.168 11.52 7.92 11.52 10.8 0 .912-.72 1.392-2.256 1.392-2.544 0-4.224-1.008-5.568-2.208l-4.512 4.368c1.488 2.016 4.896 4.32 9.696 4.32zm28.1442-.624h8.016v-13.968c0-5.136-.768-11.856-8.64-11.856-3.168 0-5.28 1.728-6.24 3.216v-12.096h-8.0161v34.704h8.0161v-15.024c0-2.016 1.344-3.6 3.552-3.6 1.92 0 3.312 1.248 3.312 3.6zm17.536.624c2.64 0 4.8-2.16 4.8-4.752 0-2.64-2.16-4.8-4.8-4.8s-4.752 2.16-4.752 4.8c0 2.592 2.112 4.752 4.752 4.752zm4.272-34.224h-8.496l.624 23.472h7.248z" fill="#000"/><path d="m70 54v167" stroke="#000"/><path d="m40 396v-145.5l60.5 39v130" stroke="#000"/><path d="m40 259 60.5 39" stroke="#000"/><path d="m40 267 60.5 39" stroke="#000"/><path d="m40 275 60.5 39" stroke="#000"/><path d="m40 283 60.5 39" stroke="#000"/><path d="m46 254.5v32.5" stroke="#000"/><path d="m52 258v32.5" stroke="#000"/><path d="m58 262v32.5" stroke="#000"/><path d="m64 266v32.5" stroke="#000"/><path d="m70 270v32.5" stroke="#000"/><path d="m76 274v32.5" stroke="#000"/><path d="m82 278v32" stroke="#000"/><path d="m88 281.344v32.5" stroke="#000"/><path d="m94 285v32.5" stroke="#000"/><g fill="#000"><path d="m46 254.5-6-3.5v8l6 3.5z"/><path d="m58 262.5-6-4v8.5l6 3.5z"/><path d="m70 270-6-4v8.5l6 3.5z"/><path d="m82 278-6-4v8.5l6 3.5z"/><path d="m94 285.5-6-3.5v8.5l6 3.5z"/><path d="m100 297.5-6-3.5v8.5l6 3.5z"/><path d="m88 289.5-6-3.5v8.5l6 3.5z"/><path d="m76 281.5-6-3.5v8.5l6 3.5z"/><path d="m64 274.5-6-3.5v8.5l6 3.5z"/><path d="m52 266.5-6-3.5v8.5l6 3.5z"/><path d="m46 270.5-6-3.5v8.5l6 3.5z"/><path d="m58 278.5-6-3.5v8.5l6 3.5z"/><path d="m70 286.5-6-4v8l6 3.5z"/><path d="m82 294-6-4v8l6 3.5z"/><path d="m94 302-6-4v8l6 3.5z"/><path d="m100 314-6-4v8l6 3.5z"/><path d="m88 306-6-4v8l6 3.5z"/><path d="m76 298-6-4v8l6 4z"/><path d="m64 290.5-6-4v8l6 4z"/><path d="m52 283-6-4v8l6 4z"/><g filter="url(#a)"><path d="m235.928 300.837 13.935 3.873 15.316-10.71-21.981.607c-.215.011-.424.075-.606.186l-6.955 3.85c-.216.116-.392.291-.504.503-.111.213-.154.453-.123.689s.135.458.299.636c.164.179.379.306.619.366z"/><path d="m301.034 287.374-15.268-3.173c-1.284-.269-2.613-.268-3.897.002s-2.492.802-3.543 1.561l-46.119 32.27-11.075-.467c-.634-.02-1.259.151-1.787.491-.527.34-.931.831-1.153 1.403s-.252 1.198-.086 1.787c.167.59.522 1.114 1.015 1.499l10.784 8.237c.178.138.389.23.614.266.225.037.456.018.671-.056 3.077-1.143 14.54-7 28.087-14.163l2.715 26.856c.023.233.111.455.256.643.144.188.339.334.564.423.224.088.47.117.709.081.24-.036.466-.134.652-.283l6.058-4.854c.332-.267.555-.639.631-1.05l5.743-31.01c9.694-5.18 18.952-10.196 25.471-13.743.676-.354 1.223-.9 1.567-1.564.343-.664.466-1.413.352-2.147-.113-.733-.458-1.415-.988-1.953-.53-.539-1.219-.907-1.973-1.056z"/></g></g><circle cx="281" cy="294" fill="#fff6f0" r="2"/><circle cx="273" cy="299" fill="#fff6f0" r="2"/><circle cx="265" cy="304" fill="#fff6f0" r="2"/><circle cx="257" cy="309" fill="#fff6f0" r="2"/><circle cx="249" cy="314" fill="#fff6f0" r="2"/><circle cx="241" cy="319" fill="#fff6f0" r="2"/><path d="m284 288 3-3.5 12.5 2.5-7 5z" fill="#fff6f0"/></svg>
